_includes/icons/color-lifebuoy.svg

<svg fill="#666" height="50" viewBox="0 0 48 48" width="50" xmlns="http://www.w3.org/2000/svg"><path d="m15.4 43.5c-3.8 0-6.4-.9-8.2-2.7-2.6-2.5-3.3-6.8-2.2-13.9v-.5c0-3.2 0-5 0-5.3-1.1-7.2-1.2-11.6 1.3-14.2 2.3-2.4 6.6-2.9 14.8-1.9h1c1.2 0 4.4.1 4.8 0 6.5-1 11.4-1.1 14.1 1.6 2.4 2.4 3 6.7 2 14.6v5.7c1.1 7.4.6 11.6-1.9 14-2.5 2.5-6.8 3.1-14.2 2.1h-5.9c-2.1.3-4 .5-5.6.5zm5.5-2.5h6.2c6.7 1 10.6.5 12.6-1.5 1.9-1.9 2.3-5.8 1.3-12.4-.1-.5-.1-5.9 0-6.3.9-7 .5-11-1.4-12.9-1.9-1.8-5.4-2.1-12.5-1-.4.2-2.1.2-5.1.1-.5 0-.9 0-1 0h-.1c-7.5-.9-11.4-.5-13.2 1.3-1.9 2-1.7 5.9-.7 12.5v5.6.7c-1 6.3-.5 10.2 1.6 12.3 2 2.1 5.9 2.6 12.3 1.6z" fill="#607d8b"/><path d="m24 7c-9.4 0-17 7.6-17 17s7.6 17 17 17 17-7.6 17-17-7.6-17-17-17zm0 26c-5 0-9-4-9-9s4-9 9-9 9 4 9 9-4 9-9 9z" fill="#90caf9"/><g fill="#f44336"><path d="m15.5 27h-8.2c-.2-1-.3-2-.3-3s.1-2 .3-3h8.2c-.3.9-.5 2-.5 3s.2 2.1.5 3zm17.5-3c0 1-.2 2.1-.5 3h8.2c.2-1 .3-2 .3-3s-.1-2-.3-3h-8.2c.3.9.5 2 .5 3zm-6 16.7v-8.2c-.9.3-2 .5-3 .5s-2.1-.2-3-.5v8.2c1 .2 2 .3 3 .3s2-.1 3-.3zm-6-33.4v8.2c.9-.3 2-.5 3-.5s2.1.2 3 .5v-8.2c-1-.2-2-.3-3-.3s-2 .1-3 .3z"/><path d="m21 5h6v7h-6z"/><path d="m37 21h6v6h-6z"/><path d="m5 21h5v6h-5z"/><path d="m21 38h6v5h-6z"/></g></svg>

<svg xmlns="http://www.w3.org/2000/svg" viewBox="0 0 48 48" width="50" height="50" fill="#666"><path d="M15.4,43.5c-3.8,0-6.4-0.9-8.2-2.7C4.6,38.3,3.9,34,5,26.9l0-0.5c0-3.2,0-5,0-5.3 C3.9,13.9,3.8,9.5,6.3,6.9C8.6,4.5,12.9,4,21.1,5c0.2,0,0.5,0,1,0c1.2,0,4.4,0.1,4.8,0C33.4,4,38.3,3.9,41,6.6 c2.4,2.4,3,6.7,2,14.6c0,0.4,0,5.3,0,5.7c1.1,7.4,0.6,11.6-1.9,14c-2.5,2.5-6.8,3.1-14.2,2.1h-5.9C18.9,43.3,17,43.5,15.4,43.5z M20.9,41l6.2,0c6.7,1,10.6,0.5,12.6-1.5c1.9-1.9,2.3-5.8,1.3-12.4c-0.1-0.5-0.1-5.9,0-6.3c0.9-7,0.5-11-1.4-12.9 c-1.9-1.8-5.4-2.1-12.5-1C26.7,7.1,25,7.1,22,7c-0.5,0-0.9,0-1,0l-0.1,0C13.4,6.1,9.5,6.5,7.7,8.3C5.8,10.3,6,14.2,7,20.8 C7,21,7,21.6,7,26.4l0,0.7c-1,6.3-0.5,10.2,1.6,12.3C10.6,41.5,14.5,42,20.9,41L20.9,41z" fill="#607d8b"/><path d="M24,7C14.6,7,7,14.6,7,24s7.6,17,17,17s17-7.6,17-17S33.4,7,24,7z M24,33c-5,0-9-4-9-9s4-9,9-9 s9,4,9,9S29,33,24,33z" fill="#90caf9"/><path d="M15.5,27H7.3C7.1,26,7,25,7,24s0.1-2,0.3-3h8.2c-0.3,0.9-0.5,2-0.5,3S15.2,26.1,15.5,27z M33,24 c0,1-0.2,2.1-0.5,3h8.2c0.2-1,0.3-2,0.3-3s-0.1-2-0.3-3h-8.2C32.8,21.9,33,23,33,24z M27,40.7v-8.2c-0.9,0.3-2,0.5-3,0.5 s-2.1-0.2-3-0.5v8.2c1,0.2,2,0.3,3,0.3S26,40.9,27,40.7z M21,7.3v8.2c0.9-0.3,2-0.5,3-0.5s2.1,0.2,3,0.5V7.3C26,7.1,25,7,24,7 S22,7.1,21,7.3z" fill="#f44336"/><path d="M21,5h6v7h-6V5z" fill="#f44336"/><path d="M37,21h6v6h-6V21z" fill="#f44336"/><path d="M5,21h5v6H5V21z" fill="#f44336"/><path d="M21,38h6v5h-6V38z" fill="#f44336"/></svg>
